svg/white/lsk.svg

<svg xmlns="http://www.w3.org/2000/svg" width="32" height="32" viewBox="0 0 32 32">
  <path fill="#FFF" d="M16,32 C7.163444,32 0,24.836556 0,16 C0,7.163444 7.163444,0 16,0 C24.836556,0 32,7.163444 32,16 C32,24.836556 24.836556,32 16,32 Z M13.4160709,13.0999432 L12.1048866,14.2039885 C12.0179364,14.2770896 11.9471136,14.4282884 11.9469077,14.5417045 C11.9456038,15.5310332 11.9454665,19.6625446 11.9453979,20.6519417 C11.9453979,20.7653579 12.0376323,20.8572133 12.1512784,20.8572133 L13.3674831,20.8572133 C13.4811978,20.8572133 13.5733636,20.7653579 13.5733636,20.6518732 L13.5733636,13.1728389 C13.5733636,13.0594228 13.5029525,13.0267737 13.4160709,13.0999432 Z M10.9557646,19.4623791 L7.32053264,19.4623791 C7.212514,19.4623791 7.11465214,19.3942746 7.11465214,19.2570389 L7.11465214,16.0629051 L7.11465214,11.1114022 C7.11465214,10.997986 7.04465277,10.9658845 6.95832021,11.0396701 L5.65633193,12.1524766 C5.56999937,12.2262621 5.5,12.3780769 5.5,12.4914246 L5.5,20.6532832 C5.5,20.7547212 5.57377385,20.837884 5.67060631,20.853969 L5.66758673,20.8572544 L10.9381275,20.8572544 C11.0518422,20.8572544 11.144008,20.7653305 11.144008,20.6519143 L11.144008,19.6677192 C11.144008,19.5543714 11.0518422,19.4623791 10.9557646,19.4623791 Z M19.3221031,16.9027804 C19.0261842,16.6934019 18.5514924,16.4626681 17.8978904,16.210442 C17.1201425,15.910577 16.615598,15.6750519 16.3841883,15.5037298 C16.15271,15.3324077 16.0370738,15.1230977 16.0370738,14.8755944 C16.0370738,14.3712791 16.4808149,14.1189846 17.3682285,14.1189846 C17.8369498,14.1189846 18.394131,14.233359 19.0393605,14.4618341 C19.146487,14.4997536 19.2785937,14.4530045 19.3354853,14.3547835 L19.828775,13.5026905 C19.885598,13.4044694 19.8469611,13.2884523 19.7410013,13.2473158 C19.0071059,12.9625091 18.2353285,12.8198661 17.4254633,12.8198661 C16.4854815,12.8198661 15.7424588,13.0066572 15.1961892,13.3801709 C14.6497824,13.7538214 14.3766476,14.2784654 14.3766476,14.9541028 C14.3766476,15.5156395 14.5377147,15.9725213 14.8598491,16.3246111 C15.1818462,16.6767694 15.7984583,17.0289277 16.7098913,17.3810175 C17.1773773,17.5619221 17.5423348,17.7236617 17.8048324,17.8663731 C18.0671928,18.0091529 18.2557107,18.1472783 18.3702489,18.2804072 C18.4847184,18.4136729 18.5420218,18.5802037 18.5420218,18.7800681 C18.5420218,19.4035491 17.9556056,19.7151869 16.9203011,19.7151869 C16.0606128,19.7151869 15.4729612,19.4932827 15.0723178,19.2962931 C14.9703383,19.2460533 14.8411826,19.2804819 14.7818204,19.3771971 L14.3102854,20.14469 C14.2508546,20.2414052 14.2797465,20.3706326 14.3791181,20.4257322 C14.8836626,20.7050632 15.7392333,21 16.8630664,21 C17.9126452,21 18.7876373,20.7942492 19.3507205,20.3826107 C19.9135977,19.9709723 20.1952423,19.3797297 20.1952423,18.608746 C20.1952423,18.2281139 20.1236645,17.9010071 19.9805089,17.6272887 C19.8373533,17.3537073 19.6178847,17.1122273 19.3221031,16.9027804 Z M27.4532436,13.1436943 C27.534086,13.0638855 27.5074588,12.9992718 27.3937442,12.9992718 L25.9429729,12.9992718 C25.8293269,12.9992718 25.6692205,13.061353 25.5853585,13.1380133 L22.5925423,16.1294764 C22.5087489,16.2061367 22.4408083,16.1763624 22.4408083,16.0628778 L22.4408083,11.1114433 C22.4408083,10.9980271 22.370809,10.9659256 22.284545,11.0397112 L20.9824881,12.1525176 C20.8961556,12.2263032 20.8261562,12.3780495 20.8261562,12.4914657 L20.8261562,20.6533243 C20.8261562,20.7667405 20.918322,20.8580484 21.0320367,20.857227 L22.2521532,20.857227 C22.3658678,20.8565426 22.4580337,20.7556521 22.4580337,20.6422359 L22.4580337,18.2791135 C22.4580337,18.1657658 22.5242586,18.0099126 22.6059245,17.9309936 L23.1647528,17.3915651 C23.2464187,17.3126461 23.3627412,17.3259248 23.4245054,17.4210657 L25.4669772,20.6751588 C25.5287413,20.7703682 25.6710048,20.857227 25.7847194,20.857227 L27.1423641,20.857227 C27.2560787,20.857227 27.2983529,20.7702313 27.2368632,20.674885 L24.5548579,16.5161318 C24.4932997,16.4207856 24.5090152,16.2788271 24.589789,16.1990182 L27.4532436,13.1436943 Z"/>
</svg>

<svg xmlns="http://www.w3.org/2000/svg" width="32" height="32"><path fill="#FFF" d="M16 32C7.163 32 0 24.837 0 16S7.163 0 16 0s16 7.163 16 16-7.163 16-16 16zm-2.584-18.9l-1.311 1.104a.502.502 0 0 0-.158.338l-.002 6.11c0 .113.093.205.206.205h1.216a.206.206 0 0 0 .206-.205v-7.48c0-.113-.07-.145-.157-.072zm-2.46 6.362H7.32c-.108 0-.206-.068-.206-.205v-8.146c0-.113-.07-.145-.157-.071l-1.302 1.112a.507.507 0 0 0-.156.34v8.161c0 .102.074.185.17.201l-.002.003h5.27a.206.206 0 0 0 .206-.205v-.984c0-.114-.092-.206-.188-.206zm8.366-2.56c-.296-.209-.77-.44-1.424-.692-.778-.3-1.282-.535-1.514-.706-.231-.172-.347-.38-.347-.628 0-.505.444-.757 1.331-.757.469 0 1.026.114 1.671.343a.255.255 0 0 0 .296-.107l.494-.852a.173.173 0 0 0-.088-.256 6.344 6.344 0 0 0-2.316-.427c-.94 0-1.683.187-2.229.56-.546.374-.82.898-.82 1.574 0 .562.162 1.019.484 1.37.322.353.938.705 1.85 1.057.467.18.832.343 1.095.485.262.143.45.281.565.414a.74.74 0 0 1 .172.5c0 .624-.586.935-1.622.935a4.03 4.03 0 0 1-1.848-.419.227.227 0 0 0-.29.081l-.472.768a.2.2 0 0 0 .07.28c.504.28 1.36.575 2.483.575 1.05 0 1.925-.206 2.488-.617.563-.412.844-1.003.844-1.774 0-.38-.071-.708-.214-.982a2.072 2.072 0 0 0-.659-.724zm8.131-3.758c.081-.08.054-.145-.06-.145h-1.45a.612.612 0 0 0-.358.139l-2.992 2.991c-.084.077-.152.047-.152-.066V11.11c0-.113-.07-.145-.156-.071l-1.303 1.113a.507.507 0 0 0-.156.338v8.162c0 .114.092.205.206.204h1.22a.214.214 0 0 0 .206-.215V18.28c0-.113.066-.27.148-.348l.559-.54a.163.163 0 0 1 .26.03l2.042 3.254a.433.433 0 0 0 .318.182h1.357c.114 0 .156-.087.095-.182l-2.682-4.159a.264.264 0 0 1 .035-.317l2.863-3.055z"/></svg>
